X:171
M:4/4
L:1/8
K:D
| FADA FADA | FAdA BAdG | FADF E2EF | DBAB d2d2 | 
| f2fe fede | fedB ABde | f2e2 fede | faaf e2e2 | 
f2fe fede | fedB ABde | fded BdAg | faaf d2d2 || 

